javascript.info/1-js/04-object-basics/02-garbage-collection/family-delete-refs.svg

<?xml version="1.0" encoding="UTF-8"?>
<svg width="337px" height="204px" viewBox="0 0 337 204" version="1.1" xmlns="http://www.w3.org/2000/svg" xmlns:xlink="http://www.w3.org/1999/xlink">
    <!-- Generator: sketchtool 55.2 (78181) - https://sketchapp.com -->
    <title>family-delete-refs.svg</title>
    <desc>Created with sketchtool.</desc>
    <g id="garbage-collection" stroke="none" stroke-width="1" fill="none" fill-rule="evenodd">
        <g id="family-delete-refs.svg">
            <path id="Line" d="M147.5,189.5 L193.5,189.5 L193.5,191.5 L147.5,191.5 L147.5,197.5 L133.5,190.5 L147.5,183.5 L147.5,189.5 Z" fill="#9B9B9B" fill-rule="nonzero" opacity="0.6"></path>
            <rect id="Rectangle-1" stroke="#E8C48E" stroke-width="2" fill="#FFF9EB" x="88" y="13" width="151" height="26"></rect>
            <text id="&lt;global-variable&gt;" font-family="PTMono-Regular, PT Mono" font-size="14" font-weight="normal" fill="#8A704D">
                <tspan x="92" y="30">&lt;global variable&gt;</tspan>
            </text>
            <rect id="Rectangle-2" stroke="#BCA68E" stroke-width="2" fill="#FFF9EB" x="123" y="80" width="78" height="26"></rect>
            <text id="Object" font-family="PTMono-Regular, PT Mono" font-size="14" font-weight="normal" fill="#8A704D">
                <tspan x="139" y="96">Object</tspan>
            </text>
            <rect id="Rectangle-3" stroke="#BCA68E" stroke-width="2" fill="#FFF9EB" x="5" y="148" width="118" height="48"></rect>
            <text id="Object-2" font-family="PTMono-Regular, PT Mono" font-size="14" font-weight="normal" fill="#8A704D">
                <tspan x="39" y="165">Object</tspan>
            </text>
            <text id="wife" font-family="PTMono-Regular, PT Mono" font-size="14" font-weight="normal" fill="#8A704D">
                <tspan x="147" y="148">wife</tspan>
            </text>
            <text id="family" font-family="PTMono-Regular, PT Mono" font-size="14" font-weight="normal" fill="#8A704D">
                <tspan x="106" y="63">family</tspan>
            </text>
            <text id="name:-&quot;John&quot;" font-family="PTMono-Regular, PT Mono" font-size="12" font-weight="normal" fill="#8A704D">
                <tspan x="19" y="185">name: "John"</tspan>
            </text>
            <rect id="Rectangle-4" stroke="#BCA68E" stroke-width="2" fill="#FFF9EB" x="214" y="148" width="118" height="48"></rect>
            <text id="name:-&quot;Ann&quot;" font-family="PTMono-Regular, PT Mono" font-size="12" font-weight="normal" fill="#8A704D">
                <tspan x="230" y="185">name: "Ann"</tspan>
            </text>
            <text id="mother" font-family="PTMono-Regular, PT Mono" font-size="14" font-weight="normal" fill="#8A704D">
                <tspan x="242" y="127">mother</tspan>
            </text>
            <text id="Object-3" font-family="PTMono-Regular, PT Mono" font-size="14" font-weight="normal" fill="#8A704D">
                <tspan x="244" y="165">Object</tspan>
            </text>
            <path id="Line" d="M162.5,61.5 L162.5,43.5 L164.5,43.5 L164.5,61.5 L170.5,61.5 L163.5,75.5 L156.5,61.5 L162.5,61.5 Z" fill="#EE6B47" fill-rule="nonzero"></path>
            <path id="Line-2" d="M79.4216083,135.684192 L114.749841,111.10803 L115.89197,112.749841 L80.5637373,137.326002 L83.9901242,142.251434 L68.5,144.5 L75.9952214,130.758761 L79.4216083,135.684192 Z" fill="#9B9B9B" fill-rule="nonzero" opacity="0.6"></path>
            <path id="Line" d="M180.5,157.5 L132.5,157.5 L132.5,155.5 L180.5,155.5 L180.5,149.5 L194.5,156.5 L180.5,163.5 L180.5,157.5 Z" fill="#EE6B47" fill-rule="nonzero"></path>
            <path id="Line" d="M243.36482,137.447526 L207.11061,112.763808 L208.236192,111.11061 L244.490402,135.794327 L247.867147,130.834732 L255.5,144.5 L239.988074,142.407121 L243.36482,137.447526 Z" fill="#EE6B47" fill-rule="nonzero"></path>
            <path d="M89.5,118.5 L100.5,132.5" id="Line-Copy" stroke="#EE6B47" stroke-width="2" stroke-linecap="square" transform="translate(95.000000, 125.500000) scale(-1, 1) translate(-95.000000, -125.500000) "></path>
            <path d="M89.5,118.5 L100.5,132.5" id="Line-Copy-2" stroke="#EE6B47" stroke-width="2" stroke-linecap="square"></path>
            <path d="M161.5,183.5 L172.5,197.5" id="Line-Copy-4" stroke="#EE6B47" stroke-width="2" stroke-linecap="square" transform="translate(167.000000, 190.500000) scale(-1, 1) translate(-167.000000, -190.500000) "></path>
            <path d="M161.5,183.5 L172.5,197.5" id="Line-Copy-3" stroke="#EE6B47" stroke-width="2" stroke-linecap="square"></path>
            <text id="father" font-family="PTMono-Regular, PT Mono" font-size="14" font-weight="normal" fill="#9B9B9B">
                <tspan x="35" y="127">father</tspan>
            </text>
            <text id="husband" font-family="PTMono-Regular, PT Mono" font-size="14" font-weight="normal" fill="#9B9B9B">
                <tspan x="136" y="181">husband</tspan>
            </text>
        </g>
    </g>
</svg>

<svg xmlns="http://www.w3.org/2000/svg" width="337" height="204" viewBox="0 0 337 204"><defs><style>@import url(https://fonts.googleapis.com/css?family=Open+Sans:bold,italic,bolditalic%7CPT+Mono);@font-face{font-family:&apos;PT Mono&apos;;font-weight:700;font-style:normal;src:local(&apos;PT MonoBold&apos;),url(/pack/modules/styles/blocks/font/PTMonoBold.woff2) format(&apos;woff2&apos;),url(/pack/modules/styles/blocks/font/PTMonoBold.woff) format(&apos;woff&apos;),url(/pack/modules/styles/blocks/font/PTMonoBold.ttf) format(&apos;truetype&apos;)}</style></defs><g id="garbage-collection" fill="none" fill-rule="evenodd" stroke="none" stroke-width="1"><g id="family-delete-refs.svg"><path id="Line" fill="#9B9B9B" fill-rule="nonzero" d="M147.5 189.5h46v2h-46v6l-14-7 14-7v6z" opacity=".6"/><path id="Rectangle-1" fill="#FFF9EB" stroke="#E8C48E" stroke-width="2" d="M88 13h151v26H88z"/><text id="&lt;global-variable&gt;" fill="#8A704D" font-family="PTMono-Regular, PT Mono" font-size="14" font-weight="normal"><tspan x="92" y="30">&lt;global variable&gt;</tspan></text><path id="Rectangle-2" fill="#FFF9EB" stroke="#BCA68E" stroke-width="2" d="M123 80h78v26h-78z"/><text id="Object" fill="#8A704D" font-family="PTMono-Regular, PT Mono" font-size="14" font-weight="normal"><tspan x="139" y="96">Object</tspan></text><path id="Rectangle-3" fill="#FFF9EB" stroke="#BCA68E" stroke-width="2" d="M5 148h118v48H5z"/><text id="Object-2" fill="#8A704D" font-family="PTMono-Regular, PT Mono" font-size="14" font-weight="normal"><tspan x="39" y="165">Object</tspan></text><text id="wife" fill="#8A704D" font-family="PTMono-Regular, PT Mono" font-size="14" font-weight="normal"><tspan x="147" y="148">wife</tspan></text><text id="family" fill="#8A704D" font-family="PTMono-Regular, PT Mono" font-size="14" font-weight="normal"><tspan x="106" y="63">family</tspan></text><text id="name:-&quot;John&quot;" fill="#8A704D" font-family="PTMono-Regular, PT Mono" font-size="12" font-weight="normal"><tspan x="19" y="185">name: &quot;John&quot;</tspan></text><path id="Rectangle-4" fill="#FFF9EB" stroke="#BCA68E" stroke-width="2" d="M214 148h118v48H214z"/><text id="name:-&quot;Ann&quot;" fill="#8A704D" font-family="PTMono-Regular, PT Mono" font-size="12" font-weight="normal"><tspan x="230" y="185">name: &quot;Ann&quot;</tspan></text><text id="mother" fill="#8A704D" font-family="PTMono-Regular, PT Mono" font-size="14" font-weight="normal"><tspan x="242" y="127">mother</tspan></text><text id="Object-3" fill="#8A704D" font-family="PTMono-Regular, PT Mono" font-size="14" font-weight="normal"><tspan x="244" y="165">Object</tspan></text><path id="Line" fill="#EE6B47" fill-rule="nonzero" d="M162.5 61.5v-18h2v18h6l-7 14-7-14h6z"/><path id="Line-2" fill="#9B9B9B" fill-rule="nonzero" d="M79.422 135.684l35.328-24.576 1.142 1.642-35.328 24.576 3.426 4.925L68.5 144.5l7.495-13.741 3.427 4.925z" opacity=".6"/><path id="Line" fill="#EE6B47" fill-rule="nonzero" d="M180.5 157.5h-48v-2h48v-6l14 7-14 7v-6zM243.365 137.448l-36.254-24.684 1.125-1.653 36.254 24.683 3.377-4.96L255.5 144.5l-15.512-2.093 3.377-4.96z"/><path id="Line-Copy" stroke="#EE6B47" stroke-linecap="square" stroke-width="2" d="M100.5 118.5l-11 14"/><path id="Line-Copy-2" stroke="#EE6B47" stroke-linecap="square" stroke-width="2" d="M89.5 118.5l11 14"/><path id="Line-Copy-4" stroke="#EE6B47" stroke-linecap="square" stroke-width="2" d="M172.5 183.5l-11 14"/><path id="Line-Copy-3" stroke="#EE6B47" stroke-linecap="square" stroke-width="2" d="M161.5 183.5l11 14"/><text id="father" fill="#9B9B9B" font-family="PTMono-Regular, PT Mono" font-size="14" font-weight="normal"><tspan x="35" y="127">father</tspan></text><text id="husband" fill="#9B9B9B" font-family="PTMono-Regular, PT Mono" font-size="14" font-weight="normal"><tspan x="136" y="181">husband</tspan></text></g></g></svg>
